images_sukapura_svg/cmd/32/setminimalcolumnwidth.svg

<svg viewBox="0 0 32 32" xmlns="http://www.w3.org/2000/svg"><path d="m13 4v24h7v-24z" fill="#fff"/><path d="m13 3v6 4 1 4 1 4 1 4 1h7v-1-4-1-4-1-4-1-4-6zm1 1h5v4h-5zm0 5h5v4h-5zm0 5h5v4h-5zm0 5h5v4h-5zm0 5h5v4h-5z" fill="#69696e"/><path d="m14 8v1h5v-1zm0 5v1h5v-1zm0 5v1h5v-1zm0 5v1h5v-1z" fill="#bababa"/></svg>

<?xml version="1.0" encoding="UTF-8" standalone="no"?>
<svg
   xmlns:dc="http://purl.org/dc/elements/1.1/"
   xmlns:cc="http://creativecommons.org/ns#"
   xmlns:rdf="http://www.w3.org/1999/02/22-rdf-syntax-ns#"
   xmlns:svg="http://www.w3.org/2000/svg"
   xmlns="http://www.w3.org/2000/svg"
   xmlns:sodipodi="http://sodipodi.sourceforge.net/DTD/sodipodi-0.dtd"
   xmlns:inkscape="http://www.inkscape.org/namespaces/inkscape"
   viewBox="0 0 32 32"
   version="1.1"
   id="svg16"
   sodipodi:docname="setminimalcolumnwidth.svg"
   inkscape:version="0.92.3 (unknown)">
  <metadata
     id="metadata22">
    <rdf:RDF>
      <cc:Work
         rdf:about="">
        <dc:format>image/svg+xml</dc:format>
        <dc:type
           rdf:resource="http://purl.org/dc/dcmitype/StillImage" />
        <dc:title></dc:title>
      </cc:Work>
    </rdf:RDF>
  </metadata>
  <defs
     id="defs20">
    <linearGradient
       gradientTransform="translate(75,-7)"
       id="a-367"
       gradientUnits="userSpaceOnUse"
       x1="14"
       x2="13.79661"
       y1="22"
       y2="2.1355929">
      <stop
         offset="0"
         stop-color="#0040dd"
         id="stop2206" />
      <stop
         offset="1"
         stop-color="#0a84ff"
         id="stop2208" />
    </linearGradient>
  </defs>
  <sodipodi:namedview
     pagecolor="#ffffff"
     bordercolor="#666666"
     borderopacity="1"
     objecttolerance="10"
     gridtolerance="10"
     guidetolerance="10"
     inkscape:pageopacity="0"
     inkscape:pageshadow="2"
     inkscape:window-width="1366"
     inkscape:window-height="706"
     id="namedview18"
     showgrid="true"
     inkscape:zoom="3.6875"
     inkscape:cx="-15.581805"
     inkscape:cy="1.6737727"
     inkscape:window-x="0"
     inkscape:window-y="0"
     inkscape:window-maximized="1"
     inkscape:current-layer="g16">
    <inkscape:grid
       type="xygrid"
       id="grid829"
       spacingx="0.5"
       spacingy="0.5"
       empspacing="2" />
  </sodipodi:namedview>
  <g
     transform="matrix(0,1,1,0,15.999979,7.9904854)"
     id="g16" />
  <path
     d="m13 4v24h7v-24z"
     fill="#fff"
     id="path2" />
  <path
     d="M 13 3 L 13 9 L 13 13 L 13 14 L 13 18 L 13 19 L 13 23 L 13 24 L 13 28 L 13 29 L 20 29 L 20 28 L 20 24 L 20 23 L 20 19 L 20 18 L 20 14 L 20 13 L 20 9 L 20 3 L 13 3 z M 14 4 L 19 4 L 19 8 L 14 8 L 14 4 z M 14 9 L 19 9 L 19 13 L 14 13 L 14 9 z M 14 14 L 19 14 L 19 18 L 14 18 L 14 14 z M 14 19 L 19 19 L 19 23 L 14 23 L 14 19 z M 14 24 L 19 24 L 19 28 L 14 28 L 14 24 z "
     id="path4"
     style="fill:#69696e;fill-opacity:1" />
  <path
     style="fill:#bababa;fill-opacity:1"
     d="M 14 8 L 14 9 L 19 9 L 19 8 L 14 8 z M 14 13 L 14 14 L 19 14 L 19 13 L 14 13 z M 14 18 L 14 19 L 19 19 L 19 18 L 14 18 z M 14 23 L 14 24 L 19 24 L 19 23 L 14 23 z "
     id="rect834" />
</svg>
